assets/Canoe/Flat/canoe_flat.svg

<svg width="32" height="32" viewBox="0 0 32 32" fill="none" xmlns="http://www.w3.org/2000/svg">
<path d="M2.07001 18.583C2.45001 22.733 6.29 26.003 11.01 26.003H20.99C25.7 26.003 29.55 22.733 29.93 18.583H2.07001Z" fill="#FF822D"/>
<path d="M29.97 17.9133C29.97 17.4533 29.58 17.0933 29.08 17.0333C29.01 17.0333 28.94 17.0133 28.86 17.0233C27.34 17.1833 25.79 17.3033 24.22 17.4033C18.79 17.7533 13.17 17.7533 7.74 17.4033C6.18 17.3033 4.62 17.1833 3.1 17.0233C3.02 17.0133 2.95 17.0333 2.88 17.0333C2.39 17.0833 2 17.4533 2 17.9133C2 18.0133 2.01 18.1033 2.02 18.2033C2.03 18.3333 2.04 18.4533 2.06 18.5733C11.02 19.5733 20.95 19.5733 29.91 18.5733C29.92 18.4533 29.94 18.3233 29.95 18.2033C29.96 18.1133 29.97 18.0133 29.97 17.9133Z" fill="black"/>
<path d="M25.6581 9.78796L26 10.1232C26.25 10.3632 26.14 10.7932 25.8 10.8832L25.58 10.9432C25.3449 11.0075 25.1145 10.9944 24.9094 10.9234L13.7591 22.2437C14.2244 23.0096 14.1301 24.0147 13.47 24.6832L8.56002 29.6632C8.17002 30.0632 7.53002 30.0632 7.14002 29.6632L5.72003 28.2732C5.32003 27.8832 5.32002 27.2532 5.71002 26.8532L10.62 21.8732C11.2815 21.2033 12.288 21.0943 13.0605 21.5522L24.209 10.234C24.1351 10.0304 24.1187 9.80028 24.18 9.56316L24.24 9.34316C24.32 9.00316 24.74 8.88316 24.99 9.13316L25.3258 9.46227C25.4838 9.50796 25.6093 9.63128 25.6581 9.78796Z" fill="#F3AD61"/>
<path d="M30 23C28.2506 23 28.2506 24.3067 26.4913 24.3067C24.7419 24.3067 24.7419 23 22.9825 23C21.2331 23 21.2331 24.3067 19.4838 24.3067C17.7344 24.3067 17.7344 23 15.985 23C14.2356 23 14.2356 24.3067 12.4863 24.3067C10.7369 24.3067 10.7369 23 8.9875 23C7.23813 23 7.23813 24.3067 5.49875 24.3067C3.74938 24.3067 3.74938 23 2 23V30H29.99L30 23Z" fill="#00A6ED"/>
</svg>

<svg xmlns="http://www.w3.org/2000/svg" width="32" height="32" fill="none"><path fill="#FF822D" d="M2.07 18.583c.38 4.15 4.22 7.42 8.94 7.42h9.98c4.71 0 8.56-3.27 8.94-7.42H2.07Z"/><path fill="#000" d="M29.97 17.913c0-.46-.39-.82-.89-.88-.07 0-.14-.02-.22-.01-1.52.16-3.07.28-4.64.38-5.43.35-11.05.35-16.48 0-1.56-.1-3.12-.22-4.64-.38-.08-.01-.15.01-.22.01-.49.05-.88.42-.88.88 0 .1.01.19.02.29.01.13.02.25.04.37 8.96 1 18.89 1 27.85 0 .01-.12.03-.25.04-.37.01-.09.02-.19.02-.29Z"/><path fill="#F3AD61" d="m25.658 9.788.342.335c.25.24.14.67-.2.76l-.22.06a1.127 1.127 0 0 1-.67-.02l-11.15 11.32a1.993 1.993 0 0 1-.29 2.44l-4.91 4.98a.99.99 0 0 1-1.42 0l-1.42-1.39a.999.999 0 0 1-.01-1.42l4.91-4.98a1.995 1.995 0 0 1 2.44-.32L24.21 10.233a1.125 1.125 0 0 1-.029-.67l.06-.22c.08-.34.5-.46.75-.21l.336.328a.493.493 0 0 1 .332.326Z"/><path fill="#00A6ED" d="M30 23c-1.75 0-1.75 1.307-3.509 1.307-1.75 0-1.75-1.307-3.508-1.307-1.75 0-1.75 1.307-3.5 1.307-1.749 0-1.749-1.307-3.498-1.307-1.75 0-1.75 1.307-3.499 1.307-1.75 0-1.75-1.307-3.498-1.307-1.75 0-1.75 1.307-3.49 1.307C3.75 24.307 3.75 23 2 23v7h27.99l.01-7Z"/></svg>
